;FLAVOR:Marlin
;TIME:7865
;Filament used: 5.36537m
;Layer height: 0.2
;MINX:50.961
;MINY:39.71
;MINZ:0.2
;MAXX:169.039
;MAXY:180.29
;MAXZ:4.6
;Generated with Cura_SteamEngine 5.2.1
M140 S70
M105
M190 S70
M104 S220
M105
M109 S220
M82 ;absolute extrusion mode
G28 ; home all axes
 M117 Purge extruder
 G92 E0 ; reset extruder
 G1 Z1.0 F3000 ; move z up little to prevent scratching of surface
 G1 X2 Y20 Z0.3 F5000.0 ; move to start-line position
 G1 X2 Y200.0 Z0.3 F1500.0 E15 ; draw 1st line
 G1 X2 Y200.0 Z0.4 F5000.0 ; move to side a little
 G1 X2 Y20 Z0.4 F1500.0 E30 ; draw 2nd line
 G92 E0 ; reset extruder
 G1 Z1.0 F3000 ; move z up little to prevent scratching of surface
G92 E0
G92 E0
G1 F1500 E-2
;LAYER_COUNT:23
;LAYER:0
M107
G0 F6000 X53.534 Y44.006 Z0.2
;TYPE:SKIRT
G1 F1500 E0
G1 F1200 X54.169 Y43.284 E0.03518
G1 X54.861 Y42.618 E0.07032
G1 X55.606 Y42.012 E0.10545
G1 X56.399 Y41.47 E0.14059
G1 X57.234 Y40.995 E0.17574
G1 X58.106 Y40.592 E0.21089
G1 X59.009 Y40.263 E0.24605
G1 X59.935 Y40.01 E0.28117
G1 X60.88 Y39.835 E0.31633
G1 X62.187 Y39.724 E0.36432
G1 X62.831 Y39.71 E0.38789
G1 X156.957 Y39.711 E3.83159
G1 X157.655 Y39.721 E3.85713
G1 X158.614 Y39.775 E3.89228
G1 X159.566 Y39.908 E3.92744
G1 X160.503 Y40.12 E3.96259
G1 X161.419 Y40.409 E3.99773
G1 X162.308 Y40.774 E4.03289
G1 X163.163 Y41.211 E4.06802
G1 X163.979 Y41.717 E4.10315
G1 X164.75 Y42.29 E4.1383
G1 X165.471 Y42.925 E4.17345
G1 X166.137 Y43.618 E4.20861
G1 X166.743 Y44.363 E4.24375
G1 X167.284 Y45.157 E4.2789
G1 X167.758 Y45.993 E4.31406
G1 X168.16 Y46.865 E4.34919
G1 X168.489 Y47.768 E4.38435
G1 X168.741 Y48.694 E4.41946
G1 X168.916 Y49.639 E4.45462
G1 X169.025 Y50.936 E4.50224
G1 X169.039 Y51.58 E4.52581
G1 X169.038 Y168.157 E8.79091
G1 X169.029 Y168.884 E8.81751
G1 X168.977 Y169.843 E8.85265
G1 X168.846 Y170.795 E8.88781
G1 X168.636 Y171.732 E8.92294
G1 X168.348 Y172.649 E8.95811
G1 X167.986 Y173.538 E8.99322
G1 X167.55 Y174.395 E9.0284
G1 X167.045 Y175.212 E9.06354
G1 X166.474 Y175.984 E9.09867
G1 X165.84 Y176.706 E9.13383
G1 X165.149 Y177.373 E9.16897
G1 X164.405 Y177.98 E9.2041
G1 X163.612 Y178.523 E9.23926
G1 X162.777 Y178.998 E9.27441
G1 X161.906 Y179.403 E9.30955
G1 X161.004 Y179.733 E9.34469
G1 X160.078 Y179.987 E9.37982
G1 X159.133 Y180.163 E9.41499
G1 X157.813 Y180.276 E9.46346
G1 X157.169 Y180.29 E9.48702
G1 X63.059 Y180.289 E12.93015
G1 X62.361 Y180.28 E12.95569
G1 X61.402 Y180.228 E12.99082
G1 X60.45 Y180.096 E13.02599
G1 X59.513 Y179.885 E13.06113
G1 X58.597 Y179.597 E13.09626
G1 X57.707 Y179.234 E13.13142
G1 X56.851 Y178.798 E13.16657
G1 X56.034 Y178.293 E13.20171
G1 X55.262 Y177.721 E13.23686
G1 X54.541 Y177.087 E13.27199
G1 X53.874 Y176.396 E13.30713
G1 X53.267 Y175.651 E13.34228
G1 X52.725 Y174.858 E13.37743
G1 X52.25 Y174.023 E13.41257
G1 X51.846 Y173.151 E13.44773
G1 X51.516 Y172.249 E13.48287
G1 X51.262 Y171.323 E13.518
G1 X51.087 Y170.378 E13.55316
G1 X50.974 Y169.053 E13.60182
G1 X50.961 Y168.408 E13.62542
G1 X50.962 Y51.768 E17.89283
G1 X50.971 Y51.103 E17.91716
G1 X51.024 Y50.144 E17.9523
G1 X51.157 Y49.192 E17.98747
G1 X51.368 Y48.255 E18.02261
G1 X51.656 Y47.339 E18.05774
G1 X52.02 Y46.45 E18.09288
G1 X52.456 Y45.594 E18.12803
G1 X52.962 Y44.777 E18.16319
G1 X53.534 Y44.006 E18.19831
G0 F6000 X53.969 Y44.17
G1 F1200 X54.601 Y43.471 E18.23279
G1 X55.289 Y42.829 E18.26722
G1 X56.03 Y42.247 E18.30169
G1 X56.818 Y41.73 E18.33617
G1 X57.647 Y41.281 E18.37066
G1 X58.51 Y40.905 E18.40511
G1 X59.403 Y40.603 E18.43959
G1 X60.317 Y40.378 E18.47403
G1 X61.248 Y40.231 E18.50852
G1 X62.199 Y40.163 E18.5434
G1 X62.831 Y40.15 E18.56653
G1 X156.951 Y40.151 E22.01001
G1 X157.649 Y40.161 E22.03555
G1 X158.59 Y40.215 E22.07004
G1 X159.522 Y40.348 E22.10448
G1 X160.44 Y40.559 E22.13894
G1 X161.337 Y40.848 E22.17342
G1 X162.206 Y41.212 E22.20789
G1 X163.041 Y41.648 E22.24236
G1 X163.836 Y42.153 E22.27681
G1 X164.586 Y42.724 E22.3113
G1 X165.284 Y43.357 E22.34578
G1 X165.926 Y44.046 E22.38023
G1 X166.508 Y44.787 E22.4147
G1 X167.024 Y45.575 E22.44916
G1 X167.472 Y46.404 E22.48364
G1 X167.847 Y47.268 E22.5181
G1 X168.149 Y48.161 E22.55259
G1 X168.373 Y49.076 E22.58705
G1 X168.519 Y50.007 E22.62153
G1 X168.586 Y50.948 E22.65605
G1 X168.599 Y51.58 E22.67917
G1 X168.598 Y168.151 E26.94406
G1 X168.589 Y168.878 E26.97066
G1 X168.538 Y169.819 E27.00513
G1 X168.406 Y170.752 E27.03961
G1 X168.196 Y171.671 E27.0741
G1 X167.909 Y172.568 E27.10856
G1 X167.547 Y173.438 E27.14303
G1 X167.113 Y174.274 E27.17749
G1 X166.609 Y175.07 E27.21196
G1 X166.04 Y175.82 E27.24641
G1 X165.408 Y176.52 E27.28091
G1 X164.72 Y177.163 E27.31536
G1 X163.98 Y177.746 E27.34983
G1 X163.193 Y178.264 E27.3843
G1 X162.365 Y178.713 E27.41876
G1 X161.502 Y179.091 E27.45323
G1 X160.61 Y179.394 E27.4877
G1 X159.695 Y179.62 E27.52218
G1 X158.765 Y179.768 E27.55663
G1 X157.801 Y179.837 E27.59199
G1 X157.169 Y179.85 E27.61512
G1 X63.065 Y179.849 E31.05802
G1 X62.367 Y179.84 E31.08356
G1 X61.426 Y179.788 E31.11804
G1 X60.493 Y179.656 E31.15252
G1 X59.575 Y179.446 E31.18697
G1 X58.678 Y179.158 E31.22144
G1 X57.808 Y178.796 E31.25591
G1 X56.972 Y178.361 E31.29039
G1 X56.177 Y177.857 E31.32483
G1 X55.426 Y177.287 E31.35932
G1 X54.727 Y176.655 E31.3938
G1 X54.084 Y175.967 E31.42825
G1 X53.502 Y175.226 E31.46273
G1 X52.984 Y174.439 E31.4972
G1 X52.535 Y173.611 E31.53166
G1 X52.158 Y172.747 E31.56615
G1 X51.856 Y171.855 E31.6006
G1 X51.63 Y170.941 E31.63505
G1 X51.483 Y170.01 E31.66953
G1 X51.414 Y169.041 E31.70507
G1 X51.401 Y168.408 E31.72824
G1 X51.402 Y51.774 E35.99543
G1 X51.411 Y51.109 E36.01976
G1 X51.464 Y50.168 E36.05424
G1 X51.596 Y49.235 E36.08871
G1 X51.807 Y48.317 E36.12318
G1 X52.095 Y47.42 E36.15764
G1 X52.458 Y46.551 E36.1921
G1 X52.893 Y45.715 E36.22658
G1 X53.398 Y44.92 E36.26104
G1 X53.969 Y44.17 E36.29552
G0 F6000 X54.402 Y44.338
G1 F1200 X55.032 Y43.662 E36.32933
G1 X55.717 Y43.044 E36.36309
G1 X56.453 Y42.487 E36.39685
G1 X57.235 Y41.996 E36.43064
G1 X58.057 Y41.574 E36.46444
G1 X58.911 Y41.225 E36.4982
G1 X59.793 Y40.951 E36.53199
G1 X60.695 Y40.755 E36.56576
G1 X61.611 Y40.637 E36.59955
G1 X62.211 Y40.603 E36.62153
G1 X62.831 Y40.59 E36.64422
G1 X156.945 Y40.591 E40.08749
G1 X157.643 Y40.601 E40.11303
G1 X158.564 Y40.654 E40.14678
G1 X159.478 Y40.787 E40.18057
G1 X160.377 Y40.998 E40.21436
G1 X161.254 Y41.287 E40.24814
G1 X162.103 Y41.65 E40.28192
G1 X162.917 Y42.085 E40.31569
G1 X163.691 Y42.589 E40.34948
G1 X164.418 Y43.158 E40.38326
G1 X165.093 Y43.788 E40.41704
G1 X165.711 Y44.474 E40.45082
G1 X166.267 Y45.21 E40.48457
G1 X166.758 Y45.993 E40.51838
G1 X167.179 Y46.814 E40.55214
G1 X167.527 Y47.669 E40.58591
G1 X167.8 Y48.551 E40.61969
G1 X167.996 Y49.453 E40.65346
G1 X168.113 Y50.369 E40.68725
G1 X168.146 Y50.96 E40.7089
G1 X168.159 Y51.58 E40.73159
G1 X168.158 Y168.146 E44.99629
G1 X168.149 Y168.873 E45.02289
G1 X168.098 Y169.795 E45.05667
G1 X167.967 Y170.709 E45.09046
G1 X167.757 Y171.608 E45.12423
G1 X167.471 Y172.486 E45.15802
G1 X167.109 Y173.335 E45.19178
G1 X166.676 Y174.15 E45.22555
G1 X166.173 Y174.925 E45.25935
G1 X165.606 Y175.653 E45.29311
G1 X164.977 Y176.329 E45.32689
G1 X164.292 Y176.949 E45.3607
G1 X163.557 Y177.506 E45.39444
G1 X162.775 Y177.998 E45.42824
G1 X161.955 Y178.421 E45.462
G1 X161.1 Y178.771 E45.4958
G1 X160.219 Y179.046 E45.52956
G1 X159.317 Y179.243 E45.56334
G1 X158.401 Y179.362 E45.59714
G1 X157.789 Y179.397 E45.61956
G1 X157.169 Y179.41 E45.64225
G1 X63.071 Y179.409 E49.08493
G1 X62.373 Y179.4 E49.11047
G1 X61.451 Y179.348 E49.14426
G1 X60.537 Y179.217 E49.17804
G1 X59.638 Y179.007 E49.21182
G1 X58.76 Y178.72 E49.24561
G1 X57.911 Y178.358 E49.27938
G1 X57.096 Y177.924 E49.31316
G1 X56.322 Y177.421 E49.34693
G1 X55.594 Y176.853 E49.38072
G1 X54.918 Y176.224 E49.4145
G1 X54.299 Y175.539 E49.44828
G1 X53.742 Y174.803 E49.48205
G1 X53.25 Y174.022 E49.51582
G1 X52.828 Y173.201 E49.54959
G1 X52.478 Y172.346 E49.58339
G1 X52.204 Y171.465 E49.61715
G1 X52.007 Y170.563 E49.65093
G1 X51.889 Y169.647 E49.68472
G1 X51.854 Y169.029 E49.70736
G1 X51.841 Y168.408 E49.73009
G1 X51.842 Y51.78 E53.99706
G1 X51.851 Y51.115 E54.02139
G1 X51.903 Y50.193 E54.05517
G1 X52.035 Y49.279 E54.08896
G1 X52.246 Y48.38 E54.12275
G1 X52.534 Y47.503 E54.15652
G1 X52.896 Y46.654 E54.19028
G1 X53.331 Y45.839 E54.22408
G1 X53.834 Y45.065 E54.25786
G1 X54.402 Y44.338 E54.29161
G0 F6000 X54.836 Y44.509
G1 F1200 X55.462 Y43.858 E54.32465
G1 X56.144 Y43.264 E54.35774
G1 X56.875 Y42.733 E54.3908
G1 X57.651 Y42.268 E54.42389
G1 X58.464 Y41.874 E54.45695
G1 X59.31 Y41.553 E54.49005
G1 X60.18 Y41.308 E54.52312
G1 X61.068 Y41.141 E54.55618
G1 X62.224 Y41.043 E54.59862
G1 X62.831 Y41.03 E54.62084
G1 X156.938 Y41.031 E58.06385
G1 X157.636 Y41.041 E58.08939
G1 X158.539 Y41.094 E58.12248
G1 X159.433 Y41.226 E58.15555
G1 X160.312 Y41.437 E58.18862
G1 X161.169 Y41.725 E58.2217
G1 X161.997 Y42.088 E58.25477
G1 X162.79 Y42.522 E58.28785
G1 X163.542 Y43.024 E58.32093
G1 X164.246 Y43.591 E58.354
G1 X164.897 Y44.218 E58.38707
G1 X165.49 Y44.9 E58.42013
G1 X166.021 Y45.632 E58.45322
G1 X166.485 Y46.408 E58.4863
G1 X166.878 Y47.222 E58.51937
G1 X167.198 Y48.067 E58.55242
G1 X167.443 Y48.938 E58.58553
G1 X167.609 Y49.826 E58.61858
G1 X167.706 Y50.973 E58.66069
G1 X167.719 Y51.58 E58.68291
G1 X167.718 Y168.141 E62.94742
G1 X167.709 Y168.868 E62.97402
G1 X167.658 Y169.77 E63.00708
G1 X167.527 Y170.665 E63.04017
G1 X167.318 Y171.544 E63.07323
G1 X167.032 Y172.401 E63.10628
G1 X166.671 Y173.23 E63.13936
G1 X166.239 Y174.024 E63.17243
G1 X165.737 Y174.777 E63.20554
G1 X165.172 Y175.482 E63.2386
G1 X164.546 Y176.134 E63.27167
G1 X163.865 Y176.729 E63.30475
G1 X163.134 Y177.261 E63.33783
G1 X162.36 Y177.726 E63.37086
G1 X161.546 Y178.121 E63.40397
G1 X160.702 Y178.443 E63.43702
G1 X159.832 Y178.689 E63.47009
G1 X158.944 Y178.857 E63.50316
G1 X157.776 Y178.957 E63.54605
G1 X157.169 Y178.97 E63.56826
G1 X63.076 Y178.969 E67.01076
G1 X62.378 Y178.96 E67.0363
G1 X61.476 Y178.909 E67.06935
G1 X60.581 Y178.777 E67.10245
G1 X59.702 Y178.568 E67.13551
G1 X58.845 Y178.281 E67.16857
G1 X58.016 Y177.92 E67.20166
G1 X57.222 Y177.487 E67.23474
G1 X56.47 Y176.985 E67.26782
G1 X55.765 Y176.419 E67.3009
G1 X55.113 Y175.793 E67.33397
G1 X54.519 Y175.112 E67.36703
G1 X53.987 Y174.381 E67.40011
G1 X53.522 Y173.606 E67.43317
G1 X53.127 Y172.793 E67.46624
G1 X52.806 Y171.948 E67.49931
G1 X52.561 Y171.078 E67.53238
G1 X52.393 Y170.189 E67.56548
G1 X52.294 Y169.017 E67.60852
G1 X52.281 Y168.408 E67.6308
G1 X52.282 Y51.786 E71.89755
G1 X52.291 Y51.121 E71.92188
G1 X52.343 Y50.218 E71.95498
G1 X52.475 Y49.324 E71.98804
G1 X52.685 Y48.445 E72.0211
G1 X52.972 Y47.587 E72.0542
G1 X53.334 Y46.759 E72.08726
G1 X53.768 Y45.966 E72.12034
G1 X54.269 Y45.214 E72.1534
G1 X54.836 Y44.509 E72.1865
G1 F1500 E70.1865
;MESH:box_120x100x55_lid.stl
G0 F6000 X81.029 Y76.836
;TYPE:WALL-INNER
G1 F1500 E72.1865
G1 F1230.8 X81.634 Y75.765 E72.23038
G1 F1211 X81.954 Y75.492 E72.24563
G1 F1200 X82.265 Y75.391 E72.25759
G1 X81.954 Y75.29 E72.26955
G1 X81.639 Y75.022 E72.28468
G1 X79.028 Y70.544 E72.47433
G1 F1202.7 X78.901 Y70.044 E72.49316
G1 F1219.4 X78.972 Y69.649 E72.50761
G1 F1225.1 X78.39 Y70.674 E72.54985
G1 F1208.2 X78.062 Y70.939 E72.56518
G1 F1320 X77.591 Y71.04 E72.5812
G1 X78.058 Y71.159 E72.59723
G1 F1200 X78.364 Y71.425 E72.61206
G1 X80.955 Y75.909 E72.80153
G1 X81.102 Y76.417 E72.82088
G1 F1219.4 X81.029 Y76.836 E72.83619
G1 F1500 E70.83619
G0 F6000 X82.549 Y77.711
G0 X87.234 Y77.337
G0 X88.759 Y76.455
G1 F1500 E72.83619
G1 F1245.3 X89.063 Y77.007 E72.85841
G1 X88.9 Y76.42 E72.87989
G1 F1200 X89.047 Y75.909 E72.89934
G1 X91.641 Y71.417 E73.08912
G1 X91.959 Y71.149 E73.10434
G1 X92.266 Y71.05 E73.11614
G1 X91.959 Y70.951 E73.12794
G1 F1211 X91.64 Y70.682 E73.14307
G1 F1233.6 X90.948 Y69.479 E73.19246
G1 F1222.2 X91.102 Y70.06 E73.21405
G1 F1200 X90.962 Y70.564 E73.23319
G1 X88.395 Y75.006 E73.42089
G1 X88.064 Y75.28 E73.43661
G1 F1323.3 X87.591 Y75.381 E73.45265
G1 X88.06 Y75.5 E73.46871
G1 F1200 X88.364 Y75.765 E73.48346
G1 X88.759 Y76.455 E73.51255
G1 F1500 E71.51255
G0 F6000 X88.761 Y87.399
G1 F1500 E73.51255
G1 F1245.3 X89.063 Y87.951 E73.53473
G1 X88.9 Y87.364 E73.55621
G1 F1200 X89.046 Y86.853 E73.57566
G1 X91.567 Y82.49 E73.76001
G1 X91.71 Y82.295 E73.76886
G1 X91.994 Y82.072 E73.78207
G1 F1111.6 X92.422 Y81.909 E73.80016
G1 X91.994 Y81.746 E73.81825
G1 F1211 X91.653 Y81.478 E73.83397
G1 F1233.6 X90.948 Y80.253 E73.88427
G1 F1222.2 X91.102 Y80.834 E73.90586
G1 F1200 X90.962 Y81.338 E73.925
G1 X88.471 Y85.647 E74.1071
G1 X88.311 Y85.86 E74.11684
G1 X88.03 Y86.071 E74.1297
G1 F1086.4 X87.598 Y86.24 E74.14845
G1 X88.025 Y86.424 E74.16724
G1 F1200 X88.349 Y86.685 E74.18246
G1 X88.761 Y87.399 E74.21262
G1 F1500 E72.21262
G0 F6000 X87.234 Y88.282
G0 X82.55 Y88.656
G0 X81.03 Y87.78
G1 F1500 E74.21262
G1 F1225.1 X81.649 Y86.686 E74.25766
G1 F1208.2 X81.99 Y86.417 E74.27345
G1 F1111.6 X82.422 Y86.251 E74.29172
G1 X81.99 Y86.085 E74.31
G1 F1200 X81.653 Y85.819 E74.32571
G1 X79.028 Y81.318 E74.51634
G1 F1202.7 X78.901 Y80.818 E74.53518
G1 F1219.4 X78.972 Y80.423 E74.54962
G1 F1216.6 X78.449 Y81.344 E74.58785
G1 F1200 X78.308 Y81.521 E74.59613
G1 X78.028 Y81.732 E74.60895
G1 F1088.7 X77.598 Y81.899 E74.62756
G1 X78.022 Y82.081 E74.64616
G1 F1200 X78.35 Y82.345 E74.66157
G1 X80.955 Y86.853 E74.85205
G1 X81.102 Y87.361 E74.8714
G1 F1216.6 X81.03 Y87.78 E74.88675
G1 F1500 E72.88675
G0 F6000 X87.826 Y85.681
G1 F1500 E74.88675
G1 F1200 X87.565 Y85.755 E74.89667
G1 X82.463 Y85.778 E75.08334
G1 X82.202 Y85.699 E75.09331
G1 X82 Y85.541 E75.10269
G1 X79.417 Y81.111 E75.29031
G1 X79.34 Y80.811 E75.30164
G1 X79.383 Y80.547 E75.31143
G1 F1163 X80.265 Y79.02 E75.378
G1 F1095.4 X81.147 Y77.492 E75.44871
G1 F1035.3 X82.029 Y75.965 E75.52349
G1 F932.9 X82.455 Y75.694 E75.54725
G1 F867 X84.674 Y75.691 E75.65962
G1 F1005.7 X85.113 Y75.776 E75.67914
G1 F1200 X87.55 Y75.778 E75.7683
G1 X87.828 Y75.874 E75.77906
G1 X88.01 Y76.032 E75.78788
G1 X90.574 Y80.469 E75.97536
G1 X90.662 Y80.821 E75.98864
G1 X90.578 Y81.123 E76.00011
G1 X88.034 Y85.524 E76.18609
G1 X87.826 Y85.681 E76.19562
G0 F6000 X87.688 Y85.238
;TYPE:WALL-OUTER
G1 F1200 X87.534 Y85.316 E76.20194
G1 X82.501 Y85.34 E76.38608
G1 X82.357 Y85.269 E76.39195
G1 X79.805 Y80.904 E76.57694
G1 X79.793 Y80.724 E76.58354
G1 X82.351 Y76.294 E76.7707
G1 X82.5 Y76.216 E76.77685
G1 X87.504 Y76.216 E76.95993
G1 X87.65 Y76.295 E76.966
G1 X90.193 Y80.689 E77.15174
G1 X90.222 Y80.807 E77.15619
G1 X90.193 Y80.911 E77.16014
G1 X87.688 Y85.238 E77.34306
G1 F1500 E75.34306
G0 F6000 X88.759 Y98.172
;TYPE:WALL-INNER
G1 F1500 E77.34306
G1 F1245.3 X89.063 Y98.725 E77.36531
G1 X88.9 Y98.137 E77.38682
G1 F1200 X89.046 Y97.627 E77.40623
G1 X91.641 Y93.135 E77.59603
G1 X91.96 Y92.866 E77.61129
G1 X92.266 Y92.768 E77.62305
G1 X91.96 Y92.67 E77.63481
G1 F1211 X91.64 Y92.4 E77.64998
G1 F1230.8 X90.949 Y91.199 E77.69941
G1 F1219.4 X91.102 Y91.779 E77.72101
G1 F1200 X90.964 Y92.283 E77.74013
G1 X88.395 Y96.724 E77.92783
G1 X88.064 Y96.998 E77.94355
G1 F1320 X87.591 Y97.1 E77.95965
G1 X88.06 Y97.219 E77.97574
G1 F1200 X88.365 Y97.486 E77.99057
G1 X88.759 Y98.172 E78.01951
G1 F1500 E76.01951
G0 F6000 X87.233 Y99.055
G0 X82.55 Y99.431
G0 X81.03 Y98.554
G1 F1500 E78.01951
G1 F1216.6 X81.241 Y98.171 E78.03529
G1 F1200 X81.638 Y97.481 E78.06442
G1 X81.955 Y97.211 E78.07965
G1 X82.267 Y97.11 E78.09165
G1 X81.955 Y97.009 E78.10365
G1 X81.639 Y96.74 E78.11883
G1 X79.028 Y92.263 E78.30845
G1 F1202.7 X78.901 Y91.764 E78.32724
G1 F1216.6 X78.971 Y91.369 E78.34172
