;FLAVOR:Marlin
;TIME:5609
;Filament used: 4.61396m
;Layer height: 0.2
;MINX:81.358
;MINY:64.89
;MINZ:0.2
;MAXX:138.656
;MAXY:155.097
;MAXZ:50
;Generated with Cura_SteamEngine 5.2.1
M140 S70
M105
M190 S70
M104 S220
M105
M109 S220
M82 ;absolute extrusion mode
G28 ; home all axes
 M117 Purge extruder
 G92 E0 ; reset extruder
 G1 Z1.0 F3000 ; move z up little to prevent scratching of surface
 G1 X2 Y20 Z0.3 F5000.0 ; move to start-line position
 G1 X2 Y200.0 Z0.3 F1500.0 E15 ; draw 1st line
 G1 X2 Y200.0 Z0.4 F5000.0 ; move to side a little
 G1 X2 Y20 Z0.4 F1500.0 E30 ; draw 2nd line
 G92 E0 ; reset extruder
 G1 Z1.0 F3000 ; move z up little to prevent scratching of surface
G92 E0
G92 E0
G1 F1500 E-2
;LAYER_COUNT:250
;LAYER:0
M107
G0 F6000 X86.383 Y72.601 Z0.2
;TYPE:SKIRT
G1 F1500 E0
G1 F1200 X86.773 Y72.151 E0.02179
G1 X87.221 Y71.661 E0.04608
G1 X87.671 Y71.196 E0.06975
G1 X88.027 Y70.848 E0.08797
G1 X88.554 Y70.364 E0.11414
G1 X89.065 Y69.923 E0.13884
G1 X89.62 Y69.473 E0.16498
G1 X90.104 Y69.105 E0.18723
G1 X90.692 Y68.686 E0.21364
G1 X91.186 Y68.357 E0.23536
G1 X91.722 Y68.021 E0.2585
G1 X92.185 Y67.748 E0.27817
G1 X92.749 Y67.437 E0.30173
G1 X93.289 Y67.158 E0.32397
G1 X93.992 Y66.824 E0.35244
G1 X94.598 Y66.561 E0.37661
G1 X95.3 Y66.283 E0.40424
G1 X95.97 Y66.043 E0.43027
G1 X96.614 Y65.833 E0.45506
G1 X97.03 Y65.711 E0.47092
G1 X97.69 Y65.539 E0.49587
G1 X98.42 Y65.371 E0.52328
G1 X99.13 Y65.231 E0.54975
G1 X99.603 Y65.153 E0.56729
G1 X100.182 Y65.072 E0.58868
G1 X100.738 Y65.009 E0.60915
G1 X101.387 Y64.954 E0.63298
G1 X101.954 Y64.922 E0.65376
G1 X102.433 Y64.905 E0.6713
G1 X103.446 Y64.89 E0.70836
G1 X126.574 Y64.89 E1.55453
G1 X127.272 Y64.9 E1.58007
G1 X128.231 Y64.954 E1.61521
G1 X129.183 Y65.087 E1.65038
G1 X130.12 Y65.299 E1.68552
G1 X131.036 Y65.588 E1.72066
G1 X131.925 Y65.953 E1.75582
G1 X132.78 Y66.39 E1.79095
G1 X133.596 Y66.896 E1.82608
G1 X134.367 Y67.469 E1.86123
G1 X135.088 Y68.104 E1.89638
G1 X135.754 Y68.797 E1.93154
G1 X136.36 Y69.542 E1.96668
G1 X136.901 Y70.336 E2.00183
G1 X137.375 Y71.172 E2.03699
G1 X137.777 Y72.044 E2.07212
G1 X138.106 Y72.947 E2.10728
G1 X138.358 Y73.873 E2.14239
G1 X138.533 Y74.818 E2.17755
G1 X138.642 Y76.115 E2.22517
G1 X138.656 Y76.759 E2.24874
G1 X138.655 Y77.877 E2.28964
G1 X138.644 Y78.604 E2.31625
G1 X138.589 Y79.563 E2.35139
G1 X138.455 Y80.514 E2.38653
G1 X138.242 Y81.451 E2.42168
G1 X138.041 Y82.115 E2.44706
G1 X137.708 Y83.103 E2.48521
G1 X137.453 Y83.83 E2.5134
G1 X136.695 Y86.189 E2.60405
G1 X135.99 Y88.614 E2.69644
G1 X135.368 Y91.006 E2.78687
G1 X134.8 Y93.48 E2.87974
G1 X134.312 Y95.91 E2.97042
G1 X133.89 Y98.382 E3.06217
G1 X133.536 Y100.87 E3.15411
G1 X133.259 Y103.315 E3.24413
G1 X133.045 Y105.829 E3.33644
G1 X132.901 Y108.367 E3.42945
G1 X132.833 Y110.814 E3.51901
G1 X132.833 Y113.344 E3.61157
G1 X132.904 Y115.809 E3.7018
G1 X133.049 Y118.365 E3.79546
G1 X133.256 Y120.808 E3.88516
G1 X133.541 Y123.306 E3.97715
G1 X133.896 Y125.795 E4.06913
G1 X134.319 Y128.263 E4.16074
G1 X134.808 Y130.698 E4.25161
G1 X135.364 Y133.116 E4.34238
G1 X136.004 Y135.573 E4.43527
G1 X136.715 Y138.016 E4.52836
G1 X137.06 Y139.118 E4.57061
G1 X137.309 Y140.046 E4.60576
G1 X137.479 Y140.992 E4.64093
G1 X137.57 Y141.948 E4.67606
G1 X137.582 Y142.908 E4.71119
G1 X137.513 Y143.867 E4.74636
G1 X137.366 Y144.816 E4.7815
G1 X137.139 Y145.749 E4.81663
G1 X136.836 Y146.661 E4.85179
G1 X136.458 Y147.544 E4.88693
G1 X136.008 Y148.393 E4.92208
G1 X135.489 Y149.201 E4.95722
G1 X134.904 Y149.963 E4.99237
G1 X134.258 Y150.674 E5.02751
G1 X133.556 Y151.329 E5.06264
G1 X132.801 Y151.923 E5.09779
G1 X132.144 Y152.364 E5.12674
G1 X131.542 Y152.731 E5.15253
G1 X130.675 Y153.231 E5.18915
G1 X129.966 Y153.628 E5.21888
G1 X129.109 Y154.062 E5.25402
G1 X128.219 Y154.423 E5.28916
G1 X127.302 Y154.709 E5.3243
G1 X126.364 Y154.917 E5.35946
G1 X125.412 Y155.047 E5.39461
G1 X124.453 Y155.097 E5.42974
G1 X123.493 Y155.068 E5.46488
G1 X122.538 Y154.958 E5.50005
G1 X121.597 Y154.769 E5.53517
G1 X120.674 Y154.503 E5.57031
G1 X119.776 Y154.161 E5.60547
G1 X118.91 Y153.745 E5.64062
G1 X118.081 Y153.259 E5.67577
G1 X117.296 Y152.706 E5.71091
G1 X116.56 Y152.089 E5.74604
G1 X115.877 Y151.413 E5.7812
G1 X115.253 Y150.683 E5.81634
G1 X114.517 Y149.63 E5.86334
G1 X114.165 Y149.05 E5.88816
G1 X84.527 Y97.712 E8.05695
G1 X83.978 Y96.726 E8.09824
G1 X83.708 Y96.212 E8.11948
G1 X83.439 Y95.666 E8.14175
G1 X83.152 Y95.036 E8.16708
G1 X82.881 Y94.391 E8.19268
G1 X82.558 Y93.529 E8.22636
G1 X82.349 Y92.894 E8.25081
G1 X82.178 Y92.322 E8.27266
G1 X82.058 Y91.882 E8.28934
G1 X81.907 Y91.262 E8.31269
G1 X81.767 Y90.608 E8.33716
G1 X81.635 Y89.88 E8.36423
G1 X81.546 Y89.278 E8.38649
G1 X81.469 Y88.633 E8.41026
G1 X81.42 Y88.093 E8.43009
G1 X81.377 Y87.368 E8.45667
G1 X81.358 Y86.678 E8.48192
G1 X81.362 Y85.934 E8.50914
G1 X81.384 Y85.338 E8.53096
G1 X81.423 Y84.726 E8.5534
G1 X81.466 Y84.25 E8.57088
G1 X81.535 Y83.659 E8.59265
G1 X81.612 Y83.119 E8.61261
G1 X81.738 Y82.396 E8.63946
G1 X81.89 Y81.666 E8.66674
G1 X82.081 Y80.886 E8.69612
G1 X82.242 Y80.315 E8.71783
G1 X82.425 Y79.727 E8.74036
G1 X82.582 Y79.266 E8.75817
G1 X82.786 Y78.715 E8.77967
G1 X82.99 Y78.203 E8.79983
G1 X83.297 Y77.499 E8.82793
G1 X83.641 Y76.779 E8.85713
G1 X84.033 Y76.031 E8.88802
G1 X84.322 Y75.525 E8.90934
G1 X84.645 Y74.993 E8.93211
G1 X84.972 Y74.486 E8.95419
G1 X85.391 Y73.881 E8.98111
G1 X85.754 Y73.39 E9.00345
G1 X86.126 Y72.913 E9.02558
G1 X86.383 Y72.601 E9.04037
G0 F6000 X86.722 Y72.881
G1 F1200 X87.098 Y72.448 E9.06135
G1 X87.546 Y71.958 E9.08564
G1 X87.979 Y71.51 E9.10844
G1 X88.335 Y71.162 E9.12665
G1 X88.842 Y70.697 E9.15182
G1 X89.353 Y70.256 E9.17652
G1 X89.887 Y69.823 E9.20167
G1 X90.371 Y69.455 E9.22391
G1 X90.936 Y69.052 E9.2493
G1 X91.43 Y68.723 E9.27102
G1 X91.945 Y68.4 E9.29326
G1 X92.408 Y68.127 E9.31293
G1 X92.951 Y67.827 E9.33562
G1 X93.491 Y67.548 E9.35786
G1 X94.167 Y67.228 E9.38522
G1 X94.773 Y66.965 E9.40939
G1 X95.449 Y66.697 E9.436
G1 X96.119 Y66.457 E9.46203
G1 X96.738 Y66.256 E9.48585
G1 X97.154 Y66.134 E9.50171
G1 X97.789 Y65.968 E9.52572
G1 X98.519 Y65.8 E9.55313
G1 X99.202 Y65.665 E9.5786
G1 X99.675 Y65.587 E9.59614
G1 X100.231 Y65.51 E9.61667
G1 X100.787 Y65.447 E9.63714
G1 X101.412 Y65.394 E9.66009
G1 X102.44 Y65.345 E9.69775
G1 X103.453 Y65.33 E9.73481
G1 X126.568 Y65.33 E10.5805
G1 X127.266 Y65.34 E10.60604
G1 X128.207 Y65.394 E10.64052
G1 X129.139 Y65.527 E10.67497
G1 X130.057 Y65.738 E10.70943
G1 X130.954 Y66.027 E10.74391
G1 X131.823 Y66.391 E10.77838
G1 X132.658 Y66.827 E10.81284
G1 X133.453 Y67.332 E10.8473
G1 X134.203 Y67.903 E10.88179
G1 X134.901 Y68.536 E10.91626
G1 X135.543 Y69.225 E10.95072
G1 X136.125 Y69.966 E10.98519
G1 X136.641 Y70.754 E11.01965
G1 X137.089 Y71.583 E11.05413
G1 X137.464 Y72.447 E11.08859
G1 X137.766 Y73.34 E11.12307
G1 X137.99 Y74.255 E11.15754
G1 X138.136 Y75.186 E11.19202
G1 X138.203 Y76.127 E11.22653
G1 X138.216 Y76.759 E11.24966
G1 X138.215 Y77.87 E11.29031
G1 X138.204 Y78.597 E11.31691
G1 X138.15 Y79.537 E11.35136
G1 X138.016 Y80.47 E11.38584
G1 X137.803 Y81.388 E11.42032
G1 X137.624 Y81.974 E11.44274
G1 X137.291 Y82.962 E11.48088
G1 X137.039 Y83.677 E11.50862
G1 X136.27 Y86.072 E11.60065
G1 X135.568 Y88.488 E11.6927
G1 X134.94 Y90.904 E11.78402
G1 X134.372 Y93.375 E11.87679
G1 X133.876 Y95.85 E11.96914
G1 X133.454 Y98.318 E12.06074
G1 X133.102 Y100.791 E12.15213
G1 X132.817 Y103.303 E12.24463
G1 X132.605 Y105.8 E12.33631
G1 X132.464 Y108.295 E12.42774
G1 X132.393 Y110.838 E12.52081
G1 X132.393 Y113.357 E12.61297
G1 X132.464 Y115.846 E12.70407
G1 X132.607 Y118.356 E12.79605
G1 X132.82 Y120.861 E12.88803
G1 X133.107 Y123.381 E12.98083
G1 X133.461 Y125.865 E13.07262
G1 X133.881 Y128.318 E13.16368
G1 X134.38 Y130.803 E13.25641
G1 X134.938 Y133.227 E13.34741
G1 X135.583 Y135.7 E13.44092
G1 X136.29 Y138.131 E13.53354
G1 X136.64 Y139.25 E13.57644
G1 X136.883 Y140.16 E13.6109
G1 X137.048 Y141.087 E13.64535
G1 X137.134 Y142.026 E13.67985
G1 X137.14 Y142.968 E13.71431
G1 X137.066 Y143.907 E13.74877
G1 X136.912 Y144.837 E13.78326
G1 X136.681 Y145.75 E13.81771
G1 X136.372 Y146.64 E13.85218
G1 X135.99 Y147.501 E13.88665
G1 X135.535 Y148.326 E13.92111
G1 X135.013 Y149.11 E13.95557
G1 X134.425 Y149.847 E13.99007
G1 X133.778 Y150.531 E14.02452
G1 X133.075 Y151.158 E14.05898
G1 X132.321 Y151.723 E14.09345
G1 X131.911 Y151.991 E14.11137
G1 X131.322 Y152.35 E14.13661
G1 X130.33 Y152.921 E14.17848
G1 X129.751 Y153.245 E14.20276
G1 X128.911 Y153.669 E14.23718
G1 X128.037 Y154.021 E14.27166
G1 X127.136 Y154.298 E14.30614
G1 X126.215 Y154.497 E14.34062
G1 X125.281 Y154.617 E14.37507
G1 X124.339 Y154.658 E14.40957
G1 X123.398 Y154.619 E14.44402
G1 X122.464 Y154.5 E14.47847
G1 X121.542 Y154.302 E14.51297
G1 X120.641 Y154.027 E14.54744
G1 X119.767 Y153.676 E14.5819
G1 X118.925 Y153.253 E14.61637
G1 X118.123 Y152.759 E14.65083
G1 X117.365 Y152.2 E14.68529
G1 X116.657 Y151.578 E14.71977
G1 X116.005 Y150.898 E14.75424
G1 X115.412 Y150.166 E14.7887
G1 X114.892 Y149.398 E14.82264
G1 X114.546 Y148.83 E14.84697
G1 X84.911 Y97.498 E17.01551
G1 X84.362 Y96.512 E17.0568
G1 X84.103 Y96.018 E17.07721
G1 X83.834 Y95.472 E17.09948
G1 X83.558 Y94.866 E17.12384
G1 X83.287 Y94.221 E17.14944
G1 X82.976 Y93.391 E17.18187
G1 X82.767 Y92.756 E17.20632
G1 X82.602 Y92.207 E17.2273
G1 X82.482 Y91.767 E17.24398
G1 X82.337 Y91.17 E17.26646
G1 X82.197 Y90.516 E17.29093
G1 X82.07 Y89.815 E17.31699
G1 X81.981 Y89.213 E17.33926
G1 X81.907 Y88.593 E17.3621
G1 X81.858 Y88.053 E17.38194
G1 X81.817 Y87.356 E17.40749
G1 X81.798 Y86.666 E17.43274
G1 X81.802 Y85.951 E17.4589
G1 X81.824 Y85.355 E17.48072
G1 X81.861 Y84.765 E17.50235
G1 X81.904 Y84.289 E17.51983
G1 X81.97 Y83.721 E17.54075
G1 X82.047 Y83.181 E17.56071
G1 X82.169 Y82.485 E17.58656
G1 X82.321 Y81.755 E17.61384
G1 X82.505 Y81.006 E17.64206
G1 X82.666 Y80.435 E17.66377
G1 X82.842 Y79.869 E17.68545
G1 X82.999 Y79.408 E17.70327
G1 X83.194 Y78.877 E17.72397
G1 X83.398 Y78.365 E17.74413
G1 X83.694 Y77.689 E17.77113
G1 X84.038 Y76.969 E17.80032
G1 X84.415 Y76.249 E17.83006
G1 X84.704 Y75.743 E17.85138
G1 X85.015 Y75.232 E17.87326
G1 X85.342 Y74.725 E17.89534
G1 X85.744 Y74.142 E17.92124
G1 X86.107 Y73.651 E17.94358
G1 X86.465 Y73.193 E17.96485
G1 X86.722 Y72.881 E17.97964
G0 F6000 X87.062 Y73.16
G1 F1200 X87.423 Y72.745 E17.99977
G1 X87.871 Y72.255 E18.02406
G1 X88.286 Y71.825 E18.04592
G1 X88.642 Y71.477 E18.06413
G1 X89.129 Y71.03 E18.08832
G1 X89.64 Y70.589 E18.11301
G1 X90.153 Y70.173 E18.13718
G1 X90.637 Y69.805 E18.15942
G1 X91.18 Y69.419 E18.1838
G1 X91.674 Y69.09 E18.20551
G1 X92.169 Y68.779 E18.2269
G1 X92.632 Y68.506 E18.24656
G1 X93.153 Y68.218 E18.26834
G1 X93.693 Y67.939 E18.29058
G1 X94.342 Y67.631 E18.31686
G1 X94.948 Y67.368 E18.34103
G1 X95.597 Y67.111 E18.36657
G1 X96.267 Y66.871 E18.39261
G1 X96.862 Y66.678 E18.4155
G1 X97.278 Y66.556 E18.43136
G1 X97.887 Y66.397 E18.45438
G1 X98.617 Y66.229 E18.48179
G1 X99.274 Y66.099 E18.50629
G1 X99.747 Y66.021 E18.52383
G1 X100.281 Y65.947 E18.54356
G1 X100.837 Y65.884 E18.56403
G1 X101.436 Y65.833 E18.58602
G1 X102.003 Y65.801 E18.6068
G1 X102.446 Y65.785 E18.62302
G1 X103.459 Y65.77 E18.66008
G1 X126.409 Y65.769 E19.49974
G1 X127.26 Y65.78 E19.53087
G1 X128.181 Y65.833 E19.56463
G1 X129.095 Y65.966 E19.59842
G1 X129.994 Y66.177 E19.6322
G1 X130.871 Y66.466 E19.66598
G1 X131.72 Y66.829 E19.69977
G1 X132.534 Y67.264 E19.73353
G1 X133.308 Y67.768 E19.76733
G1 X134.035 Y68.337 E19.8011
G1 X134.71 Y68.967 E19.83488
G1 X135.328 Y69.653 E19.86866
G1 X135.884 Y70.389 E19.90241
G1 X136.375 Y71.172 E19.93622
G1 X136.796 Y71.993 E19.96998
G1 X137.144 Y72.848 E20.00375
G1 X137.417 Y73.73 E20.03753
G1 X137.613 Y74.632 E20.0713
G1 X137.73 Y75.548 E20.10509
G1 X137.763 Y76.139 E20.12674
G1 X137.776 Y76.759 E20.14943
G1 X137.775 Y77.863 E20.18982
G1 X137.764 Y78.59 E20.21643
G1 X137.71 Y79.512 E20.25022
G1 X137.576 Y80.426 E20.28401
G1 X137.364 Y81.324 E20.31777
G1 X137.207 Y81.834 E20.33729
G1 X136.874 Y82.822 E20.37544
G1 X136.619 Y83.546 E20.40352
G1 X135.856 Y85.921 E20.49479
G1 X135.148 Y88.361 E20.58774
G1 X134.504 Y90.834 E20.68124
G1 X133.94 Y93.29 E20.77343
G1 X133.444 Y95.762 E20.86567
G1 X133.024 Y98.22 E20.95691
G1 X132.664 Y100.751 E21.05044
G1 X132.381 Y103.249 E21.14241
G1 X132.166 Y105.775 E21.23516
G1 X132.024 Y108.292 E21.3274
G1 X131.953 Y110.826 E21.42014
G1 X131.953 Y113.336 E21.51198
G1 X132.026 Y115.883 E21.6052
G1 X132.168 Y118.384 E21.69685
G1 X132.386 Y120.943 E21.79081
G1 X132.668 Y123.425 E21.8822
G1 X133.02 Y125.894 E21.97345
G1 X133.457 Y128.44 E22.06796
G1 X133.948 Y130.889 E22.15934
G1 X134.51 Y133.33 E22.25098
G1 X135.152 Y135.794 E22.34414
G1 X135.874 Y138.277 E22.43875
G1 X136.22 Y139.381 E22.48107
G1 X136.458 Y140.273 E22.51485
G1 X136.617 Y141.183 E22.54865
G1 X136.697 Y142.103 E22.58244
G1 X136.697 Y143.026 E22.6162
G1 X136.617 Y143.946 E22.64999
G1 X136.458 Y144.855 E22.68375
G1 X136.221 Y145.747 E22.71752
G1 X135.908 Y146.616 E22.75131
G1 X135.52 Y147.454 E22.7851
G1 X135.062 Y148.255 E22.81886
G1 X134.536 Y149.014 E22.85264
G1 X133.946 Y149.724 E22.88642
G1 X133.297 Y150.381 E22.9202
G1 X132.594 Y150.979 E22.95397
G1 X131.679 Y151.617 E22.99478
G1 X131.103 Y151.968 E23.01946
G1 X130.116 Y152.537 E23.06114
G1 X129.537 Y152.861 E23.08541
G1 X128.712 Y153.276 E23.1192
G1 X127.855 Y153.619 E23.15297
G1 X126.971 Y153.886 E23.18676
G1 X126.067 Y154.076 E23.22056
G1 X125.151 Y154.186 E23.25431
G1 X124.228 Y154.218 E23.2881
G1 X123.306 Y154.169 E23.32188
G1 X122.392 Y154.04 E23.35565
G1 X121.492 Y153.833 E23.38944
G1 X120.614 Y153.549 E23.4232
G1 X119.763 Y153.19 E23.45699
G1 X118.947 Y152.758 E23.49077
G1 X118.171 Y152.258 E23.52454
G1 X117.441 Y151.692 E23.55834
G1 X116.763 Y151.066 E23.5921
G1 X116.142 Y150.383 E23.62587
G1 X115.582 Y149.649 E23.65965
G1 X115.266 Y149.167 E23.68074
G1 X114.927 Y148.61 E23.70459
G1 X85.295 Y97.284 E25.8729
G1 X84.746 Y96.298 E25.91418
G1 X84.498 Y95.823 E25.93379
G1 X84.229 Y95.277 E25.95606
G1 X83.963 Y94.695 E25.97947
G1 X83.692 Y94.05 E26.00507
G1 X83.394 Y93.254 E26.03616
G1 X83.185 Y92.619 E26.06062
G1 X83.027 Y92.091 E26.08078
G1 X82.907 Y91.651 E26.09747
G1 X82.767 Y91.077 E26.11909
G1 X82.627 Y90.423 E26.14356
G1 X82.506 Y89.751 E26.16854
G1 X82.417 Y89.149 E26.1908
G1 X82.346 Y88.553 E26.21276
G1 X82.297 Y88.013 E26.2326
G1 X82.257 Y87.343 E26.25715
G1 X82.238 Y86.653 E26.28241
G1 X82.241 Y85.967 E26.30751
G1 X82.263 Y85.371 E26.32933
G1 X82.299 Y84.805 E26.35008
G1 X82.342 Y84.329 E26.36756
G1 X82.406 Y83.783 E26.38768
G1 X82.483 Y83.243 E26.40763
G1 X82.6 Y82.575 E26.43244
G1 X82.752 Y81.845 E26.45972
G1 X82.928 Y81.125 E26.48684
G1 X83.089 Y80.554 E26.50855
G1 X83.258 Y80.01 E26.52939
G1 X83.415 Y79.549 E26.54721
G1 X83.603 Y79.04 E26.56706
G1 X83.807 Y78.528 E26.58722
G1 X84.091 Y77.878 E26.61317
G1 X84.435 Y77.158 E26.64237
G1 X84.797 Y76.467 E26.67091
G1 X85.086 Y75.961 E26.69223
G1 X85.385 Y75.47 E26.71326
G1 X85.712 Y74.963 E26.73533
G1 X86.098 Y74.404 E26.76019
G1 X86.461 Y73.913 E26.78253
G1 X86.805 Y73.472 E26.80299
G1 X87.062 Y73.16 E26.81778
G0 F6000 X87.402 Y73.44
G1 F1200 X87.747 Y73.042 E26.83705
G1 X88.195 Y72.552 E26.86134
G1 X88.594 Y72.14 E26.88232
G1 X88.95 Y71.792 E26.90054
G1 X89.417 Y71.363 E26.92374
G1 X89.928 Y70.922 E26.94843
G1 X90.419 Y70.524 E26.97156
G1 X90.903 Y70.156 E26.9938
G1 X91.424 Y69.785 E27.0172
G1 X91.918 Y69.456 E27.03892
G1 X92.392 Y69.158 E27.0594
G1 X92.855 Y68.885 E27.07907
G1 X93.355 Y68.609 E27.09996
G1 X93.895 Y68.33 E27.1222
G1 X94.517 Y68.035 E27.14738
