;FLAVOR:Marlin
;TIME:16841
;Filament used: 13.6625m
;Layer height: 0.2
;MINX:56.819
;MINY:51.762
;MINZ:0.2
;MAXX:160.959
;MAXY:166.29
;MAXZ:54
;Generated with Cura_SteamEngine 5.2.1
M140 S70
M105
M190 S70
M104 S220
M105
M109 S220
M82 ;absolute extrusion mode
G28 ; home all axes
 M117 Purge extruder
 G92 E0 ; reset extruder
 G1 Z1.0 F3000 ; move z up little to prevent scratching of surface
 G1 X2 Y20 Z0.3 F5000.0 ; move to start-line position
 G1 X2 Y200.0 Z0.3 F1500.0 E15 ; draw 1st line
 G1 X2 Y200.0 Z0.4 F5000.0 ; move to side a little
 G1 X2 Y20 Z0.4 F1500.0 E30 ; draw 2nd line
 G92 E0 ; reset extruder
 G1 Z1.0 F3000 ; move z up little to prevent scratching of surface
G92 E0
G92 E0
G1 F1500 E-2
;LAYER_COUNT:270
;LAYER:0
M107
G0 F6000 X60.575 Y56.559 Z0.2
;TYPE:SKIRT
G1 F1500 E0
G1 F1200 X61.24 Y55.866 E0.03514
G1 X61.651 Y55.49 E0.05552
G1 X61.962 Y55.219 E0.07061
G1 X62.712 Y54.618 E0.10577
G1 X63.438 Y54.119 E0.138
G1 X64.259 Y53.619 E0.17317
G1 X65.074 Y53.202 E0.20667
G1 X65.952 Y52.811 E0.24183
G1 X66.7 Y52.541 E0.27093
G1 X67.939 Y52.191 E0.31803
G1 X68.526 Y52.06 E0.34004
G1 X69.472 Y51.89 E0.3752
G1 X70.839 Y51.785 E0.42536
G1 X72.244 Y51.762 E0.47677
G1 X148.877 Y51.763 E3.28048
G1 X149.575 Y51.773 E3.30602
G1 X150.534 Y51.827 E3.34116
G1 X151.486 Y51.96 E3.37633
G1 X152.423 Y52.172 E3.41147
G1 X153.339 Y52.461 E3.44662
G1 X154.228 Y52.826 E3.48178
G1 X155.083 Y53.263 E3.51691
G1 X155.899 Y53.769 E3.55203
G1 X156.67 Y54.342 E3.58718
G1 X157.391 Y54.977 E3.62233
G1 X158.057 Y55.67 E3.65749
G1 X158.663 Y56.415 E3.69263
G1 X159.204 Y57.209 E3.72778
G1 X159.678 Y58.045 E3.76294
G1 X160.08 Y58.917 E3.79807
G1 X160.409 Y59.82 E3.83323
G1 X160.661 Y60.746 E3.86834
G1 X160.836 Y61.691 E3.90351
G1 X160.945 Y62.987 E3.95109
G1 X160.959 Y63.632 E3.97469
G1 X160.957 Y73.173 E4.32376
G1 X160.946 Y73.876 E4.34948
G1 X160.891 Y74.835 E4.38463
G1 X160.756 Y75.786 E4.41977
G1 X160.543 Y76.722 E4.45489
G1 X160.342 Y77.382 E4.48013
G1 X159.868 Y78.767 E4.53369
G1 X159.108 Y81.109 E4.62377
G1 X158.39 Y83.56 E4.71721
G1 X157.757 Y85.965 E4.8082
G1 X157.187 Y88.414 E4.9002
G1 X156.694 Y90.842 E4.99084
G1 X156.261 Y93.334 E5.08338
G1 X155.906 Y95.781 E5.17384
G1 X155.618 Y98.27 E5.26551
G1 X155.398 Y100.77 E5.35733
G1 X155.251 Y103.255 E5.44841
G1 X155.174 Y105.782 E5.5409
G1 X155.167 Y108.277 E5.63219
G1 X155.232 Y110.767 E5.72332
G1 X155.367 Y113.272 E5.8151
G1 X155.572 Y115.757 E5.90632
G1 X155.85 Y118.256 E5.99832
G1 X156.193 Y120.713 E6.08908
G1 X156.612 Y123.189 E6.18095
G1 X157.103 Y125.675 E6.27366
G1 X157.642 Y128.048 E6.36269
G1 X158.28 Y130.524 E6.45624
G1 X158.978 Y132.945 E6.54842
G1 X159.408 Y134.323 E6.60124
G1 X159.656 Y135.252 E6.63642
G1 X159.826 Y136.197 E6.67154
G1 X159.916 Y137.153 E6.70668
G1 X159.927 Y138.114 E6.74184
G1 X159.857 Y139.072 E6.77698
G1 X159.708 Y140.021 E6.81213
G1 X159.481 Y140.954 E6.84726
G1 X159.177 Y141.866 E6.88243
G1 X158.798 Y142.748 E6.91755
G1 X158.347 Y143.597 E6.95272
G1 X157.827 Y144.404 E6.98785
G1 X157.242 Y145.166 E7.02299
G1 X156.595 Y145.877 E7.05816
G1 X155.892 Y146.531 E7.09329
G1 X155.136 Y147.124 E7.12845
G1 X154.491 Y147.557 E7.15687
G1 X153.904 Y147.914 E7.182
G1 X125.168 Y164.502 E8.39594
G1 X124.598 Y164.821 E8.41983
G1 X123.741 Y165.255 E8.45498
G1 X122.851 Y165.616 E8.49012
G1 X121.933 Y165.902 E8.5253
G1 X120.996 Y166.11 E8.56041
G1 X120.044 Y166.24 E8.59557
G1 X119.085 Y166.29 E8.6307
G1 X118.124 Y166.261 E8.66587
G1 X117.17 Y166.151 E8.70101
G1 X116.228 Y165.962 E8.73616
G1 X115.305 Y165.696 E8.7713
G1 X114.407 Y165.354 E8.80646
G1 X113.541 Y164.939 E8.84159
G1 X112.713 Y164.452 E8.87674
G1 X111.928 Y163.899 E8.91187
G1 X111.191 Y163.282 E8.94703
G1 X110.508 Y162.606 E8.98219
G1 X109.884 Y161.876 E9.01733
G1 X109.136 Y160.803 E9.06518
G1 X108.806 Y160.258 E9.08849
G1 X59.027 Y74.038 E12.73094
G1 X58.595 Y73.253 E12.76373
G1 X58.328 Y72.735 E12.78505
G1 X57.924 Y71.864 E12.82017
G1 X57.65 Y71.132 E12.84877
G1 X57.523 Y70.755 E12.86332
G1 X57.15 Y69.368 E12.91587
G1 X57.097 Y69.107 E12.92562
G1 X56.909 Y67.807 E12.97367
G1 X56.862 Y67.265 E12.99358
G1 X56.819 Y66.305 E13.02874
G1 X56.846 Y65.388 E13.0623
G1 X57.012 Y64.011 E13.11304
G1 X57.107 Y63.477 E13.13289
G1 X57.315 Y62.539 E13.16804
G1 X57.555 Y61.747 E13.19832
G1 X57.677 Y61.392 E13.21205
G1 X58.027 Y60.498 E13.24718
G1 X58.376 Y59.767 E13.27681
G1 X58.977 Y58.705 E13.32146
G1 X59.264 Y58.255 E13.34098
G1 X59.814 Y57.467 E13.37614
G1 X60.337 Y56.829 E13.40632
G1 X60.575 Y56.559 E13.41949
G0 F6000 X60.905 Y56.85
G1 F1200 X61.558 Y56.17 E13.45398
G1 X61.94 Y55.821 E13.47291
G1 X62.251 Y55.55 E13.48801
G1 X62.987 Y54.962 E13.52247
G1 X63.683 Y54.485 E13.55334
G1 X64.488 Y53.995 E13.58782
G1 X65.27 Y53.596 E13.61994
G1 X66.131 Y53.214 E13.6544
G1 X66.843 Y52.957 E13.6821
G1 X68.035 Y52.62 E13.72742
G1 X68.622 Y52.489 E13.74942
G1 X69.55 Y52.324 E13.78391
G1 X70.846 Y52.225 E13.83146
G1 X72.244 Y52.202 E13.88261
G1 X148.871 Y52.203 E16.6861
G1 X149.569 Y52.213 E16.71164
G1 X150.51 Y52.267 E16.74612
G1 X151.442 Y52.4 E16.78057
G1 X152.36 Y52.611 E16.81503
G1 X153.257 Y52.9 E16.84951
G1 X154.126 Y53.264 E16.88398
G1 X154.961 Y53.7 E16.91844
G1 X155.756 Y54.205 E16.9529
G1 X156.506 Y54.776 E16.98739
G1 X157.204 Y55.409 E17.02186
G1 X157.846 Y56.098 E17.05632
G1 X158.428 Y56.839 E17.09079
G1 X158.944 Y57.627 E17.12525
G1 X159.392 Y58.456 E17.15973
G1 X159.767 Y59.32 E17.19418
G1 X160.069 Y60.213 E17.22867
G1 X160.293 Y61.128 E17.26314
G1 X160.439 Y62.059 E17.29762
G1 X160.506 Y62.999 E17.3321
G1 X160.519 Y63.632 E17.35526
G1 X160.517 Y73.166 E17.70407
G1 X160.506 Y73.869 E17.72979
G1 X160.451 Y74.809 E17.76424
G1 X160.317 Y75.742 E17.79873
G1 X160.104 Y76.659 E17.83317
G1 X159.925 Y77.241 E17.85545
G1 X159.453 Y78.623 E17.90888
G1 X158.675 Y81.02 E18.00108
G1 X157.968 Y83.431 E18.093
G1 X157.337 Y85.833 E18.18387
G1 X156.756 Y88.326 E18.27752
G1 X156.257 Y90.786 E18.36935
G1 X155.832 Y93.233 E18.46022
G1 X155.468 Y95.739 E18.55287
G1 X155.181 Y98.214 E18.64402
G1 X154.959 Y100.742 E18.73687
G1 X154.811 Y103.25 E18.82879
G1 X154.734 Y105.768 E18.92096
G1 X154.727 Y108.287 E19.01312
G1 X154.791 Y110.767 E19.10388
G1 X154.928 Y113.296 E19.19654
G1 X155.135 Y115.808 E19.28876
G1 X155.416 Y118.329 E19.38156
G1 X155.757 Y120.775 E19.47192
G1 X156.181 Y123.282 E19.56494
G1 X156.668 Y125.744 E19.65676
G1 X157.216 Y128.157 E19.74729
G1 X157.849 Y130.616 E19.84019
G1 X158.566 Y133.101 E19.93482
G1 X158.988 Y134.454 E19.98667
G1 X159.231 Y135.365 E20.02116
G1 X159.395 Y136.293 E20.05564
G1 X159.479 Y137.231 E20.0901
G1 X159.484 Y138.173 E20.12456
G1 X159.409 Y139.112 E20.15903
G1 X159.255 Y140.042 E20.19351
G1 X159.022 Y140.954 E20.22795
G1 X158.713 Y141.844 E20.26242
G1 X158.33 Y142.705 E20.2969
G1 X157.875 Y143.53 E20.33137
G1 X157.351 Y144.313 E20.36584
G1 X156.763 Y145.049 E20.4003
G1 X156.115 Y145.733 E20.43478
G1 X155.411 Y146.359 E20.46924
G1 X154.656 Y146.923 E20.50372
G1 X154.259 Y147.183 E20.52108
G1 X153.685 Y147.533 E20.54568
G1 X125.082 Y164.045 E21.75401
G1 X124.383 Y164.437 E21.78333
G1 X123.542 Y164.862 E21.8178
G1 X122.668 Y165.214 E21.85228
G1 X121.767 Y165.491 E21.88676
G1 X120.847 Y165.69 E21.9212
G1 X119.912 Y165.81 E21.95569
G1 X118.971 Y165.851 E21.99015
G1 X118.03 Y165.812 E22.02461
G1 X117.095 Y165.693 E22.05909
G1 X116.174 Y165.495 E22.09356
G1 X115.273 Y165.22 E22.12802
G1 X114.398 Y164.869 E22.16251
G1 X113.557 Y164.446 E22.19696
G1 X112.754 Y163.953 E22.23143
G1 X111.996 Y163.393 E22.26591
G1 X111.288 Y162.771 E22.30039
G1 X110.636 Y162.092 E22.33483
G1 X110.043 Y161.359 E22.36932
G1 X109.511 Y160.572 E22.40408
G1 X109.187 Y160.038 E22.42693
G1 X59.411 Y73.823 E26.06917
G1 X58.987 Y73.052 E26.10136
G1 X58.72 Y72.534 E26.12268
G1 X58.324 Y71.679 E26.15715
G1 X58.067 Y70.992 E26.18399
G1 X57.94 Y70.615 E26.19854
G1 X57.581 Y69.28 E26.24912
G1 X57.528 Y69.019 E26.25887
G1 X57.348 Y67.769 E26.30507
G1 X57.301 Y67.227 E26.32497
G1 X57.259 Y66.286 E26.35944
G1 X57.286 Y65.414 E26.39136
G1 X57.446 Y64.088 E26.44022
G1 X57.541 Y63.554 E26.46006
G1 X57.745 Y62.634 E26.49454
G1 X57.972 Y61.89 E26.523
G1 X58.094 Y61.535 E26.53673
G1 X58.437 Y60.658 E26.57119
G1 X58.77 Y59.963 E26.59938
G1 X59.348 Y58.941 E26.64234
G1 X59.635 Y58.491 E26.66187
G1 X60.175 Y57.719 E26.69633
G1 X60.667 Y57.12 E26.72469
G1 X60.905 Y56.85 E26.73786
G0 F6000 X61.235 Y57.141
G1 F1200 X61.875 Y56.476 E26.77163
G1 X62.229 Y56.153 E26.78916
G1 X62.54 Y55.882 E26.80425
G1 X63.623 Y55.054 E26.85413
G1 X63.927 Y54.851 E26.8675
G1 X65.112 Y54.165 E26.9176
G1 X65.465 Y53.99 E26.93201
G1 X66.734 Y53.46 E26.98233
G1 X66.987 Y53.373 E26.99212
G1 X68.131 Y53.05 E27.03561
G1 X68.718 Y52.919 E27.05761
G1 X69.627 Y52.757 E27.09139
G1 X70.854 Y52.665 E27.13641
G1 X72.244 Y52.642 E27.18727
G1 X148.865 Y52.643 E29.99054
G1 X149.563 Y52.653 E30.01608
G1 X150.484 Y52.706 E30.04983
G1 X151.398 Y52.839 E30.08362
G1 X152.297 Y53.05 E30.11741
G1 X153.174 Y53.339 E30.15119
G1 X154.023 Y53.702 E30.18497
G1 X154.837 Y54.137 E30.21874
G1 X155.611 Y54.641 E30.25253
G1 X156.338 Y55.21 E30.28631
G1 X157.013 Y55.84 E30.32009
G1 X157.631 Y56.526 E30.35387
G1 X158.187 Y57.262 E30.38762
G1 X158.678 Y58.045 E30.42143
G1 X159.099 Y58.866 E30.45519
G1 X159.447 Y59.721 E30.48896
G1 X159.72 Y60.603 E30.52274
G1 X159.916 Y61.505 E30.55651
G1 X160.033 Y62.421 E30.59029
G1 X160.066 Y63.011 E30.61191
G1 X160.079 Y63.632 E30.63464
G1 X160.077 Y73.159 E30.98319
G1 X160.066 Y73.862 E31.00892
G1 X160.011 Y74.783 E31.04267
G1 X159.877 Y75.697 E31.07647
G1 X159.665 Y76.595 E31.11023
G1 X159.508 Y77.101 E31.12961
G1 X159.037 Y78.479 E31.18289
G1 X158.258 Y80.878 E31.27517
G1 X157.548 Y83.302 E31.36758
G1 X156.901 Y85.761 E31.46061
G1 X156.331 Y88.211 E31.55264
G1 X155.826 Y90.695 E31.64538
G1 X155.398 Y93.161 E31.73695
G1 X155.03 Y95.697 E31.8307
G1 X154.74 Y98.196 E31.92275
G1 X154.52 Y100.711 E32.01511
G1 X154.372 Y103.211 E32.10674
G1 X154.294 Y105.753 E32.19978
G1 X154.287 Y108.298 E32.2929
G1 X154.352 Y110.802 E32.38454
G1 X154.488 Y113.319 E32.47676
G1 X154.697 Y115.86 E32.57004
G1 X154.973 Y118.33 E32.66097
G1 X155.327 Y120.871 E32.75483
G1 X155.749 Y123.368 E32.84748
G1 X156.235 Y125.827 E32.93919
G1 X156.787 Y128.258 E33.03039
G1 X157.427 Y130.741 E33.12421
G1 X158.141 Y133.215 E33.21841
G1 X158.568 Y134.585 E33.27092
G1 X158.805 Y135.478 E33.30472
G1 X158.963 Y136.387 E33.33847
G1 X159.042 Y137.307 E33.37226
G1 X159.042 Y138.231 E33.40606
G1 X158.961 Y139.15 E33.43982
G1 X158.801 Y140.06 E33.47362
G1 X158.563 Y140.952 E33.5074
G1 X158.249 Y141.82 E33.54117
G1 X157.86 Y142.657 E33.57494
G1 X157.401 Y143.458 E33.60871
G1 X156.874 Y144.216 E33.64249
G1 X156.284 Y144.926 E33.67626
G1 X155.634 Y145.582 E33.71005
G1 X154.93 Y146.18 E33.74384
G1 X154.026 Y146.81 E33.78416
G1 X153.465 Y147.152 E33.80819
G1 X124.862 Y163.664 E35.01652
G1 X124.168 Y164.053 E35.04563
G1 X123.344 Y164.469 E35.0794
G1 X122.486 Y164.812 E35.11321
G1 X121.603 Y165.079 E35.14696
G1 X120.699 Y165.269 E35.18075
G1 X119.782 Y165.379 E35.21454
G1 X118.86 Y165.411 E35.2483
G1 X117.938 Y165.362 E35.28208
G1 X117.023 Y165.233 E35.31588
G1 X116.124 Y165.026 E35.34964
G1 X115.245 Y164.742 E35.38343
G1 X114.395 Y164.383 E35.41719
G1 X113.578 Y163.952 E35.45099
G1 X112.802 Y163.451 E35.48478
G1 X112.073 Y162.886 E35.51852
G1 X111.395 Y162.259 E35.55231
G1 X110.773 Y161.576 E35.58611
G1 X110.214 Y160.842 E35.61986
G1 X109.886 Y160.342 E35.64174
G1 X109.568 Y159.818 E35.66417
G1 X59.795 Y73.608 E39.30619
G1 X59.378 Y72.85 E39.33784
G1 X59.111 Y72.332 E39.35916
G1 X58.724 Y71.494 E39.39293
G1 X58.484 Y70.851 E39.41804
G1 X58.357 Y70.474 E39.4326
G1 X58.012 Y69.192 E39.48117
G1 X57.959 Y68.931 E39.49092
G1 X57.786 Y67.731 E39.53527
G1 X57.739 Y67.189 E39.55518
G1 X57.699 Y66.267 E39.58894
G1 X57.725 Y65.441 E39.61918
G1 X57.879 Y64.165 E39.6662
G1 X57.974 Y63.631 E39.68604
G1 X58.175 Y62.73 E39.71982
G1 X58.388 Y62.033 E39.74648
G1 X58.51 Y61.678 E39.76021
G1 X58.847 Y60.819 E39.79397
G1 X59.164 Y60.159 E39.82076
G1 X59.719 Y59.178 E39.862
G1 X60.006 Y58.728 E39.88153
G1 X60.536 Y57.972 E39.91531
G1 X60.997 Y57.411 E39.94187
G1 X61.235 Y57.141 E39.95504
G0 F6000 X61.565 Y57.432
G1 F1200 X62.518 Y56.485 E40.00419
G1 X62.829 Y56.214 E40.01928
G1 X63.868 Y55.42 E40.06713
G1 X64.172 Y55.217 E40.0805
G1 X65.308 Y54.559 E40.12853
G1 X65.661 Y54.384 E40.14295
G1 X66.877 Y53.876 E40.19116
G1 X67.13 Y53.789 E40.20095
G1 X68.227 Y53.479 E40.24266
G1 X68.814 Y53.348 E40.26466
G1 X69.704 Y53.191 E40.29773
G1 X70.862 Y53.105 E40.34021
G1 X72.244 Y53.082 E40.39078
G1 X148.858 Y53.083 E43.19379
G1 X149.556 Y53.093 E43.21933
G1 X150.459 Y53.146 E43.25242
G1 X151.353 Y53.278 E43.28549
G1 X152.232 Y53.489 E43.31856
G1 X153.089 Y53.777 E43.35164
G1 X153.917 Y54.14 E43.38471
G1 X154.71 Y54.574 E43.41779
G1 X155.462 Y55.076 E43.45087
G1 X156.166 Y55.643 E43.48394
G1 X156.817 Y56.27 E43.51701
G1 X157.41 Y56.952 E43.55007
G1 X157.941 Y57.684 E43.58316
G1 X158.405 Y58.46 E43.61623
G1 X158.798 Y59.274 E43.64931
G1 X159.118 Y60.119 E43.68236
G1 X159.363 Y60.99 E43.71547
G1 X159.529 Y61.878 E43.74852
G1 X159.626 Y63.024 E43.7906
G1 X159.639 Y63.632 E43.81284
G1 X159.637 Y73.152 E44.16114
G1 X159.626 Y73.855 E44.18687
G1 X159.572 Y74.757 E44.21993
G1 X159.438 Y75.651 E44.253
G1 X159.091 Y76.96 E44.30255
G1 X158.622 Y78.334 E44.35566
G1 X157.835 Y80.757 E44.44887
G1 X157.123 Y83.186 E44.54148
G1 X156.48 Y85.631 E44.63397
G1 X155.891 Y88.164 E44.72912
G1 X155.396 Y90.599 E44.82003
G1 X154.963 Y93.095 E44.91271
G1 X154.597 Y95.616 E45.00591
G1 X154.303 Y98.144 E45.09902
G1 X154.081 Y100.683 E45.19227
G1 X153.932 Y103.207 E45.28477
G1 X153.854 Y105.738 E45.37742
G1 X153.847 Y108.272 E45.47013
G1 X153.914 Y110.838 E45.56404
G1 X154.049 Y113.343 E45.65582
G1 X154.261 Y115.911 E45.75009
G1 X154.538 Y118.403 E45.84183
G1 X154.892 Y120.938 E45.93547
G1 X155.31 Y123.413 E46.02731
G1 X155.809 Y125.937 E46.12144
G1 X156.361 Y128.366 E46.21257
G1 X157.005 Y130.866 E46.30702
G1 X157.715 Y133.329 E46.4008
G1 X158.148 Y134.716 E46.45396
G1 X158.379 Y135.59 E46.48704
G1 X158.532 Y136.482 E46.52015
G1 X158.605 Y137.383 E46.55322
G1 X158.598 Y138.286 E46.58626
G1 X158.512 Y139.186 E46.61934
G1 X158.346 Y140.075 E46.65243
G1 X158.103 Y140.946 E46.68551
G1 X157.783 Y141.791 E46.71857
G1 X157.39 Y142.605 E46.75164
G1 X156.927 Y143.382 E46.78473
G1 X156.397 Y144.114 E46.81779
G1 X155.804 Y144.796 E46.85086
G1 X155.153 Y145.424 E46.88395
G1 X154.45 Y145.991 E46.91699
G1 X153.793 Y146.436 E46.94603
G1 X153.245 Y146.771 E46.96952
G1 X124.642 Y163.283 E48.17785
G1 X123.953 Y163.669 E48.20675
G1 X123.146 Y164.076 E48.23981
G1 X122.305 Y164.409 E48.27291
G1 X121.439 Y164.666 E48.30596
G1 X120.553 Y164.846 E48.33903
G1 X119.654 Y164.948 E48.37214
G1 X118.751 Y164.969 E48.40518
G1 X117.849 Y164.91 E48.43825
G1 X116.955 Y164.772 E48.47135
G1 X116.078 Y164.556 E48.50439
G1 X115.223 Y164.262 E48.53747
G1 X114.397 Y163.895 E48.57054
G1 X113.607 Y163.455 E48.60363
G1 X112.858 Y162.948 E48.63672
G1 X112.158 Y162.377 E48.66977
G1 X111.511 Y161.746 E48.70283
G1 X110.922 Y161.06 E48.73591
G1 X110.26 Y160.111 E48.77824
G1 X109.949 Y159.598 E48.80019
G1 X60.179 Y73.393 E52.442
G1 X59.769 Y72.648 E52.47312
G1 X59.502 Y72.13 E52.49444
G1 X59.124 Y71.309 E52.5275
G1 X58.901 Y70.711 E52.55086
G1 X58.774 Y70.334 E52.56541
G1 X58.443 Y69.105 E52.61198
G1 X58.39 Y68.844 E52.62172
G1 X58.224 Y67.693 E52.66427
G1 X58.177 Y67.151 E52.68417
G1 X58.139 Y66.248 E52.71724
G1 X58.165 Y65.466 E52.74586
G1 X58.312 Y64.242 E52.79097
